src/images/icon-modal-mail.svg

<svg width="47" height="59" viewBox="0 0 47 59" fill="none" xmlns="http://www.w3.org/2000/svg">
<path d="M57.9995 18.3497L21.7013 3.40098C18.4611 2.06657 14.7206 3.6687 13.3594 6.97403L2.93711 32.2811C1.57587 35.5865 3.10324 39.3581 6.34345 40.6925L42.6317 55.6371C45.8719 56.9715 49.6123 55.3694 50.9736 52.0641L61.3917 26.7671C62.7629 23.4659 61.2397 19.6841 57.9995 18.3497ZM48.2999 50.963C47.5608 52.7576 45.5283 53.6282 43.7691 52.9037L7.47085 37.9549C5.7116 37.2304 4.88163 35.181 5.62071 33.3863L16.0388 8.08936C16.7779 6.29475 18.8104 5.42416 20.5697 6.14867L56.8579 21.0933C58.6172 21.8178 59.4471 23.8673 58.7081 25.6619L48.29 50.9589L48.2999 50.963Z" fill="#DCDCDC"/>
<path d="M38.5725 31.7896L54.7469 25.8805C55.5023 25.5987 55.9069 24.7573 55.6438 23.9849C55.3765 23.2226 54.5525 22.8239 53.7871 23.1017L31.4773 31.263L29.5024 27.0819C29.4967 27.0677 29.4909 27.0534 29.4951 27.0433C29.4547 26.9437 29.4102 26.8542 29.3558 26.7606L21.3297 9.72281C20.9819 8.98663 20.1161 8.6894 19.3853 9.05252C18.6546 9.41564 18.3493 10.2979 18.6971 11.0341L26.1208 26.7684L9.62736 33.1983C8.87768 33.4944 8.49294 34.3439 8.77019 35.1103C8.92163 35.5047 9.21681 35.8042 9.57462 35.9515C9.90262 36.0866 10.2807 36.1 10.6394 35.9631L27.3785 29.4446L29.4151 33.758C29.5775 34.0976 29.8497 34.3401 30.1677 34.4711C30.4858 34.6021 30.8639 34.6155 31.2084 34.4846L35.819 32.8021L42.9974 49.301C43.1515 49.6609 43.4393 49.9218 43.7673 50.0568C44.1251 50.2042 44.5314 50.2055 44.9167 50.0322C45.6491 49.6934 45.9883 48.8133 45.6645 48.0751L38.5725 31.7896Z" fill="#DCDCDC"/>
</svg>

<svg xmlns="http://www.w3.org/2000/svg" width="47" height="59" fill="none"><path fill="#DCDCDC" d="M58 18.35L21.7 3.4c-3.24-1.33-6.98.27-8.34 3.57L2.94 32.27c-1.36 3.32.16 7.1 3.4 8.42l36.3 14.94c3.23 1.33 6.97-.27 8.33-3.58l10.42-25.3c1.36-3.3-.16-7.08-3.4-8.4zm-9.7 32.6c-.74 1.8-2.77 2.68-4.53 1.95L7.47 37.95c-1.76-.72-2.6-2.77-1.85-4.56L16.04 8.1c.74-1.8 2.77-2.68 4.53-1.95l36.3 14.94c1.75.72 2.58 2.77 1.84 4.56l-10.4 25.3zM38.57 31.8l16.18-5.92c.75-.28 1.16-1.12.9-1.9-.27-.76-1.1-1.16-1.86-.88l-22.32 8.16-1.98-4.18s0-.03 0-.04c-.05-.1-.1-.2-.14-.28L21.33 9.72c-.35-.73-1.2-1.03-1.94-.67-.75.37-1.05 1.25-.7 1.98l7.42 15.74-16.5 6.43c-.74.3-1.13 1.14-.85 1.9.15.4.45.7.8.85.33.14.7.15 1.07 0l16.74-6.5 2.04 4.3c.16.35.43.6.75.72.32.13.7.15 1.04 0l4.62-1.67L43 49.3c.15.36.44.62.77.76.36.14.76.15 1.15-.03.73-.34 1.07-1.22.74-1.95l-7.1-16.3z"/></svg>
